!!!SOCIAL_FUNCTION:	dream songs
!!!PDT:	1913
!!!OTL: No_128_A_Song_of_Spring.krn
!!!REG: Great_Lakes
!!!LANG: Non-Tone
!!!LING_GROUP: Algonquin
**kern	**kern
*staff2	*staff1
=1-	=1-
*clefF4	*clefF4
*k[f#c#g#]	*k[f#c#g#]
*M3/4	*M3/4
8GG#/L	8.c#\L
8GG#/J	.
.	16B\Jk
8GG#/L	8.B\L
8GG#/J	.
.	16c#\Jk
8GG#/L	8.c#\L
8GG#/J	.
.	16A\Jk
=2||	=2||
*M2/4	*M2/4
2r	2c#\
=3	=3
2r	16A\LK
.	8.A\J
.	4A\
=4||	=4||
*M3/4	*M3/4
2.r	8.c#\L
.	16c#\Jk
.	8.c#\L
.	16c#\Jk
.	8.c#\L
.	16A\Jk
=5||	=5||
*M2/4	*M2/4
2r	2A\
=6	=6
2r	16F#\LK
.	8.F#\J
.	4F#\
=7||	=7||
*M3/4	*M3/4
2.r	8.c#\L
.	16A\Jk
.	8.A\L
.	16c#\Jk
.	8.A\L
.	16F#\Jk
=8||	=8||
*M2/4	*M2/4
2r	2F#\
=9	=9
2r	16E\LK
.	8.E\J
.	4E\
=10||	=10||
*M3/4	*M3/4
2.r	8.F#\L
.	16F#\Jk
.	8.F#\L
.	16E\Jk
.	8.E/L
.	16C#/Jk
=11||	=11||
*M2/4	*M2/4
2r	4.C#/
.	8BB/
=12	=12
2r	16AA/LK
.	8.AA/J
.	4AA/
=13	=13
2r	8.C#/L
.	16C#/Jk
.	8.C#/L
.	16E/Jk
=14	=14
2r	8E\L
.	16C#\L
.	16E\JJ
.	8.C#/L
.	16BB/Jk
=15	=15
2r	4.AA/
.	8AA/
=16	=16
2r	2AA/
=17||	=17||
*M3/4	*M3/4
2.r	8.F#\L
.	16F#\Jk
.	8.F#\L
.	16A\Jk
.	8.A\L
.	16F#\Jk
=18||	=18||
*M2/4	*M2/4
2r	2A\
=19	=19
2r	8F#\L
.	8F#\J
.	4F#\
=20	=20
*M3/4	*M3/4
2.r	8.c#\L
.	16A\Jk
.	8.A\L
.	16A\Jk
.	8.A\L
.	16F#\Jk
=21||	=21||
*M2/4	*M2/4
2r	2F#\
=22	=22
2r	8E\L
.	8E\J
.	4E\
=23||	=23||
*M3/4	*M3/4
2.r	8.F#\L
.	16F#\Jk
.	8.F#\L
.	16E\Jk
.	8.E/L
.	16C#/Jk
=24||	=24||
*M2/4	*M2/4
2r	4.C#/
.	8BB/
=25	=25
2r	8AA/L
.	8AA/J
.	4AA/
=26	=26
2r	8.C#/L
.	16C#/Jk
.	8.C#/L
.	16E/Jk
=27	=27
2r	12E\L
.	12C#\
.	12E\J
.	8.C#/L
.	16BB/Jk
=28	=28
2r	4.AA/
.	8AA/
=29	=29
2r	2AA/
==	==
*-	*-
